X:1
L:1/8
M:6/8
K:Emin
 A,3 |: B,EB, CEE | B,EFFGA | BB/A/B ceg | fed BAFEB,B, ECC | B,EFFGA | BAB cBc | AGD E3 :|
